deploy/geobrabant/styles/geobrabant/images/telefoonnummer.svg

<?xml version="1.0" encoding="UTF-8" standalone="no"?>
<svg width="11px" height="12px" viewBox="0 0 11 12" version="1.1" xmlns="http://www.w3.org/2000/svg" xmlns:xlink="http://www.w3.org/1999/xlink" xmlns:sketch="http://www.bohemiancoding.com/sketch/ns">
    <!-- Generator: Sketch 3.2.2 (9983) - http://www.bohemiancoding.com/sketch -->
    <title>phone16</title>
    <desc>Created with Sketch.</desc>
    <defs></defs>
    <g id="Page-5" stroke="none" stroke-width="1" fill="none" fill-rule="evenodd" sketch:type="MSPage">
        <g id="Desktop-HD-2" sketch:type="MSArtboardGroup" transform="translate(-852.000000, -1300.000000)" fill="#000000">
            <g id="Bitmap-+-Group" sketch:type="MSLayerGroup" transform="translate(851.002981, 1157.000000)">
                <g id="Group" transform="translate(0.000000, 68.000000)" sketch:type="MSShapeGroup">
                    <g id="phone16" transform="translate(1.002981, 75.000000)">
                        <path d="M10.9948717,9.24574663 C11.0176735,9.42850652 10.9644321,9.58742816 10.8352591,9.72251155 L9.31893939,11.2957968 C9.25053399,11.3752577 9.16122694,11.4428383 9.05101824,11.4984219 C8.94080954,11.5540445 8.83251961,11.5898019 8.72612984,11.605694 C8.71852924,11.605694 8.69569018,11.6077195 8.65768718,11.6116925 C8.61972144,11.6156656 8.57031753,11.6176521 8.50951273,11.6176521 C8.3650827,11.6176521 8.13134562,11.5918273 7.80832011,11.5401778 C7.4852946,11.4885283 7.09006339,11.361352 6.62266374,11.1587659 C6.15518957,10.9561408 5.62504771,10.6521642 5.03221953,10.246953 C4.43939134,9.84174173 3.8085229,9.28547704 3.13967008,8.57827574 C2.60762807,8.02999609 2.16679326,7.50555467 1.81716565,7.00495151 C1.46753805,6.50434834 1.18631584,6.04148907 0.973499035,5.61637368 C0.760663601,5.19125829 0.601050997,4.80587332 0.494642595,4.46021875 C0.388234193,4.11456418 0.316028491,3.81658611 0.27802549,3.56628452 C0.240022489,3.31598294 0.224821289,3.11931741 0.232421889,2.97628794 C0.240022489,2.83325846 0.243822789,2.75379764 0.243822789,2.73790548 C0.25902399,2.62666033 0.293226691,2.51342866 0.346430892,2.39821047 C0.399635093,2.28299228 0.464240194,2.18962582 0.540246196,2.11811108 L2.05656593,0.532867722 C2.16297433,0.421622574 2.28458394,0.366 2.42139474,0.366 C2.52020254,0.366 2.60760944,0.395797807 2.68361544,0.455393422 C2.75962145,0.514989037 2.82422655,0.588490296 2.87743075,0.675897198 L4.09732708,3.09547917 C4.16573248,3.22261648 4.18473398,3.36167291 4.15433158,3.51264847 C4.12392918,3.66362403 4.05932408,3.79076134 3.96051627,3.89406041 L3.40187216,4.47809743 C3.38667096,4.4939896 3.37336991,4.51981436 3.36196901,4.55557173 C3.35056811,4.5913291 3.34486766,4.62112691 3.34486766,4.64496516 C3.37527006,4.81183288 3.44367546,5.00253885 3.55008386,5.21708306 C3.64129107,5.40778903 3.78190217,5.64021193 3.97191717,5.91435175 C4.16193218,6.18849158 4.43175348,6.50434834 4.78138109,6.86190256 C5.1234081,7.2274418 5.42743211,7.51149476 5.69345311,7.71413933 C5.95943686,7.91672547 6.18179167,8.06575346 6.36040578,8.16110644 C6.53901988,8.25645942 6.67583068,8.31406852 6.77083819,8.33389477 L6.91331218,8.36369258 C6.92851338,8.36369258 6.95325259,8.35773302 6.98743666,8.34581389 C7.02162073,8.33389477 7.04634131,8.31998913 7.06154251,8.30409696 L7.71139383,7.61278783 C7.84824189,7.48565052 8.00781724,7.42208186 8.19023164,7.42208186 C8.3194791,7.42208186 8.42204994,7.44592011 8.49805595,7.4935966 L8.50945685,7.4935966 L10.7097933,8.85237662 C10.8694618,8.95571464 10.9644693,9.08682499 10.9948717,9.24574663 L10.9948717,9.24574663 Z" id="Shape"></path>
                    </g>
                </g>
            </g>
        </g>
    </g>
</svg>

<svg width="11" height="12" viewBox="0 0 11 12" xmlns="http://www.w3.org/2000/svg" xmlns:sketch="http://www.bohemiancoding.com/sketch/ns"><title>phone16</title><desc>Created with Sketch.</desc><path d="M11.001 9.246c.023.183-.03.342-.16.477l-1.516 1.573c-.068.079-.158.147-.268.203-.11.056-.218.091-.325.107l-.068.006-.148.006c-.144 0-.378-.026-.701-.077-.323-.052-.718-.179-1.186-.381-.467-.203-.998-.507-1.59-.912-.593-.405-1.224-.961-1.893-1.669-.532-.548-.973-1.073-1.323-1.573-.35-.501-.631-.963-.844-1.389-.213-.425-.372-.811-.479-1.156-.106-.346-.179-.644-.217-.894-.038-.25-.053-.447-.046-.59l.011-.238c.015-.111.049-.224.103-.34.053-.115.118-.209.194-.28l1.516-1.585c.106-.111.228-.167.365-.167.099 0 .186.03.262.089.076.06.141.133.194.221l1.22 2.42c.068.127.087.266.057.417-.03.151-.095.278-.194.381l-.559.584-.04.077-.017.089c.03.167.099.358.205.572.091.191.232.423.422.697.19.274.46.59.809.948.342.366.646.65.912.852.266.203.488.352.667.447.179.095.315.153.41.173l.142.03.074-.018.074-.042.65-.691c.137-.127.296-.191.479-.191.129 0 .232.024.308.072h.011l2.2 1.359c.16.103.255.234.285.393z" sketch:type="MSShapeGroup" fill="#000"/></svg>
